X:1
T:Sir Robert Peel
T:Sir Robert Peel
T:William Marshall
C:William Marshall
%%score { ( 1 2 ) 3 }
L:1/8
M:2/2
K:Bb
V:1 treble 
V:2 treble 
V:3 bass 
V:1
 F | TB2 (FE) DB,FD | CccB AFcA | B2 FE DB,FD | CcAF B2 B :: e | dBfB dBfB | Gc-cB AFFe | %8
 dBfB dBfB | GcAF B2 B :| %10
V:2
 x | x8 | x8 | x8 | x2 E2 D2 D :: x | x8 | x8 | x8 | x2 E2 D2 D :| %10
V:3
 z | [B,,,B,,]2 [B,,,B,,]2 [B,,,B,,]2 [D,,D,]2 | [E,,E,]2 [=E,,=E,]2 [F,,F,]2 [F,,F,]2 | %3
 [B,,,B,,]2 [B,,,B,,]2 [B,,,B,,]2 [B,,,B,,]2 | [E,,E,]2 [F,,F,]2 [B,,,B,,]2 [B,,,B,,] :: z | %6
 [B,DF]2 [B,DF]2 [B,DF]2 [B,DF]2 | [E,G,C]2 [=E,G,C]2 [F,A,C]2 [F,A,C]2 | %8
 [B,D]2 [B,D]2 [B,D]2 [B,D]2 | [E,G,C]2 [F,A,C]2 [B,,B,]2 [B,,B,] :| %10

